client/public/images/category-menu.svg

<?xml version="1.0" encoding="UTF-8"?>
<svg width="17px" height="18px" viewBox="0 0 17 18" version="1.1" xmlns="http://www.w3.org/2000/svg" xmlns:xlink="http://www.w3.org/1999/xlink">
    <title>category-menu</title>
    <g id="Page-1" stroke="none" stroke-width="1" fill="none" fill-rule="evenodd">
        <g id="Home-account-menu" transform="translate(-330.000000, -101.000000)" fill="#FFCE34" fill-rule="nonzero">
            <g id="Group-11" transform="translate(322.000000, 94.000000)">
                <g id="category-menu" transform="translate(8.000000, 7.000000)">
                    <path d="M0.409090909,6.43090909 L7.77272727,10.6854545 C8.02587361,10.8316087 8.33776276,10.8316087 8.59090909,10.6854545 L15.9545455,6.43090909 C16.2061728,6.28563903 16.3618826,6.01781814 16.3636428,5.72727273 C16.3648015,5.43380338 16.2087007,5.16218806 15.9545455,5.01545455 L8.59090909,0.769090909 C8.33776276,0.622936804 8.02587361,0.622936804 7.77272727,0.769090909 L0.409090909,5.01545455 C0.15493566,5.16218806 -0.0011650961,5.43380338 -6.4766792e-06,5.72727273 C0.00175374103,6.01781814 0.157463561,6.28563903 0.409090909,6.43090909 Z M8.18181818,2.45454545 L13.9090909,5.72727273 L8.18181818,9 L2.45454545,5.72727273 L8.18181818,2.45454545 Z M15.1363636,8.32090909 L8.18181818,12.2727273 L1.22727273,8.28818182 C1.0386624,8.17891772 0.814249398,8.14943151 0.603815189,8.2062641 C0.39338098,8.2630967 0.214323725,8.40154933 0.106363636,8.59090909 C-0.11568134,8.98198296 0.0195247502,9.4789567 0.409090909,9.70363636 L7.77272727,13.9581818 C8.02587361,14.1043359 8.33776276,14.1043359 8.59090909,13.9581818 L15.9545455,9.70363636 C16.3441116,9.4789567 16.4793177,8.98198296 16.2572727,8.59090909 C16.1493126,8.40154933 15.9702554,8.2630967 15.7598212,8.2062641 C15.549387,8.14943151 15.324974,8.17891772 15.1363636,8.28818182 L15.1363636,8.32090909 Z M15.1363636,11.5936364 L8.18181818,15.5454545 L1.22727273,11.5609091 C1.0386624,11.451645 0.814249398,11.4221588 0.603815189,11.4789914 C0.39338098,11.535824 0.214323725,11.6742766 0.106363636,11.8636364 C-0.11568134,12.2547102 0.0195247502,12.751684 0.409090909,12.9763636 L7.77272727,17.2309091 C8.02587361,17.3770632 8.33776276,17.3770632 8.59090909,17.2309091 L15.9545455,12.9763636 C16.3441116,12.751684 16.4793177,12.2547102 16.2572727,11.8636364 C16.1493126,11.6742766 15.9702554,11.535824 15.7598212,11.4789914 C15.549387,11.4221588 15.324974,11.451645 15.1363636,11.5609091 L15.1363636,11.5936364 Z" id="Shape"></path>
                </g>
            </g>
        </g>
    </g>
</svg>

<svg height="18" viewBox="0 0 17 18" width="17" xmlns="http://www.w3.org/2000/svg"><path d="m.40909091 6.43090909 7.36363636 4.25454541c.25314634.1461542.56503549.1461542.81818182 0l7.36363641-4.25454541c.2516273-.14527006.4073371-.41309095.4090973-.70363636.0011587-.29346935-.1549421-.56508467-.4090973-.71181818l-7.36363641-4.24636364c-.25314633-.14615411-.56503548-.14615411-.81818182 0l-7.36363636 4.24636364c-.25415525.14673351-.41025601.41834883-.40909739.71181818.00176022.29054541.15747004.5583663.40909739.70363636zm7.77272727-3.97636364 5.72727272 3.27272728-5.72727272 3.27272727-5.72727273-3.27272727zm6.95454542 5.86636364-6.95454542 3.95181821-6.95454545-3.98454548c-.18861033-.1092641-.41302333-.13875031-.62345754-.08191772-.21043421.0568326-.38949146.19528523-.49745155.38464499-.22204498.39107387-.08683889.88804761.30272727 1.11272727l7.36363636 4.25454544c.25314634.1461541.56503549.1461541.81818182 0l7.36363641-4.25454544c.3895661-.22467966.5247722-.7216534.3027272-1.11272727-.1079601-.18935976-.2870173-.32781239-.4974515-.38464499-.2104342-.05683259-.4348472-.02734638-.6234576.08191772zm0 3.27272731-6.95454542 3.9518181-6.95454545-3.9845454c-.18861033-.1092641-.41302333-.1387503-.62345754-.0819177s-.38949146.1952852-.49745155.384645c-.22204498.3910738-.08683889.8880476.30272727 1.1127272l7.36363636 4.2545455c.25314634.1461541.56503549.1461541.81818182 0l7.36363641-4.2545455c.3895661-.2246796.5247722-.7216534.3027272-1.1127272-.1079601-.1893598-.2870173-.3278124-.4974515-.384645s-.4348472-.0273464-.6234576.0819177z" fill="#ffce34"/></svg>
